X: 3338
T: QUARTER DECK
%R: hornpipe, reel
B: James Kerr "Merry Melodies" v.3 p.36 #338
Z: 2016 John Chambers <jc:trillian.mit.edu>
M: C
L: 1/8
K: D
uA2 |\
Adcd Bdcd | Adcd Bdcd |\
[1 Adfa gfed | c2e2e2 :|\
[2 Adfa gece | d2f2d2 |]
|: f2 |\
afdf afba | gece geag |\
[1 fdAd fdgf | edcB A2 :|\
[2 fafd egec | d2f2d2 |]

%%sep 1 1 500
%%sep 1 1 500

